!!!COM: Music21
!!!OTL: Alalá
!!!OMV: pezas_alalas_alala-25_alala-partitura.musicxml
**kern
*I"Bagpipes
*I'Bag
*clefG^2
*k[]
*M6/8
=1
!LO:TX:a:t=Adagio
*MM72
!LO:TX:a:t=[quarter]=72
4cc;
4gg
8aa-XL
8ggJ
=
*M13/16
16ffLL
16gg
16ff
16ee
16ffJJ
4gg
8aa-XL
8ggJ
=
*M6/8
4ff
[2ee
=
*M2/4
2ee;]
=||
*M6/8
4cc;
4gg
8aa-XL
8ggJ
=
*M13/16
16ffLL
16gg
16ff
16ee
16ffJJ
4gg
8eeL
8ffJ
!!linebreak:original
=
*M6/8
4dd
[2cc
=
2.cc;]
=||
4cc;
4gg
8aa-XL
8ggJ
=
*M13/16
16ffLL
16gg
16ff
16ee
16ffJJ
4gg
8aa-XL
8ggJ
=
*M6/8
4ff
[2ee
=
2.ee]
=||
4cc;
4gg
8aa-XL
8ggJ
!!linebreak:original
=
*M13/16
16ffLL
16gg
16ff
16ee
16ffJJ
4gg
8eeL
8ffJ
=
*M6/8
4dd
[2cc
=
2.cc;]
==
*-
